X:1
T:Title
%%score { ( 1 3 ) | ( 2 4 ) }
L:1/8
M:4/4
K:Bb
V:1 treble nm="Grand Piano"
V:3 treble 
V:2 bass 
V:4 bass 
V:1
 z4 z2[Q:1/4=100] FF | [DB]2 [DB][DB] [DA]2 [B,D]2 | [EG]2 [EG]2 [DF]2 [DF][DF] | %3
 [DB]2 [EB]2 [FB]2 [EG][EG] |[M:9/8] [=Ec]2 [Ed]- [Ed] c2- ccc |[M:4/4] d2 d2 c2 cc | B2 F2 G2 G2 | %7
 FF [DFB]2 [Fd]2 [DFB]2 |[M:17/16] A-<A z/ z/ z/ z/ z/ z/ z/ z/ z/ z/ z/ z |[M:1/8] [B,DF] | %10
[M:4/4] [DB]2 [EB]2 [DB]3 [DF] | [EG][DF][B,D][CE] [DF]3 [FB] | [Fc]2 [Gc]2 c3 B | AGAB c3 [Fc] | %14
 [^Fd]2 [Gd]2 [Fd]3 [Fc] | B2 B2 B2 AG | FF [DFB]2 [Fd]2 [DFB]2 |[M:7/8] A2 z z z z2 |] %18
V:2
 z4 z2 F,F, | [B,,F,]2 [B,,F,]2 [B,,F,]2 [B,,F,]2 | [B,,B,]2 [B,,B,]2 [B,,B,]2 [B,,B,][B,,B,] | %3
 [B,,F,]2 [C,F,]2 [D,B,]2 [E,B,]2 | %4
[M:9/8] [C,B,]2 [C,B,]- [C,B,][K:treble] [F,A,F]2- [F,A,F][F,A,F][F,A,F] | %5
[M:4/4] [B,F]2 [B,F]2[K:bass] [F,A,F]2 [F,A,F][F,A,E] | [G,B,D]2 [D,B,]2 [E,B,E]2 [E,B,E]2 | %7
 [D,B,][D,B,] B,,2 [B,,B,]2 B,,2 |[M:17/16] z/ z/ z F-<FB,,/-B,,/-B,,/-B,,/-B,,/-B,,-<B,, | %9
[M:1/8] B,, |[M:4/4] [B,,F,]2 [B,,G,]2 [B,,F,]3 [B,,B,] | %11
 [B,,B,][B,,B,][B,,F,][B,,F,] [B,,B,]3 [D,B,] | [F,A,]2 [F,B,]2 [F,A,F]3 [F,DF] | %13
 [F,CF][F,B,C][F,C][F,G,F] [F,A,F]3 [E,A,] | [D,A,]2 [D,B,]2 [D,A,]3 [D,D] | %15
 [G,DG]2 [G,B,D]2[K:bass] [E,G,E]2 [E,A,E][E,B,E] | [D,B,][D,B,] B,,2 [B,,B,]2 B,,2 | %17
[M:7/8] z2 F2 B,,3 |] %18
V:3
 x8 | x8 | x8 | x8 |[M:9/8] x9 |[M:4/4] x8 | x8 | x8 | %8
[M:17/16] [Ec]/-[Ec]/-[Ec]/-[Ec]/-[Ec]-<[Ec][DFB]/-[DFB]/-[DFB]/-[DFB]/-[DFB]/-[DFB]-<[DFB] | %9
[M:1/8] x |[M:4/4] x8 | x8 | x8 | x8 | x8 | x8 | x8 |[M:7/8] [Ec]- [Ec]3 [DFB]3 |] %18
V:4
 x8 | x8 | x8 | x8 |[M:9/8] x4[K:treble] x5 |[M:4/4] x4[K:bass] x4 | x8 | x8 | %8
[M:17/16] F,/-F,/-F,/-F,/-F,-<F, z/ z/ z/ z/ z/ z/ z/ z |[M:1/8] x |[M:4/4] x8 | x8 | x8 | x8 | %14
 x8 | x4[K:bass] x4 | x8 |[M:7/8] F,- F,3 z z2 |] %18

